X:1
T:Title
%%score { ( 1 3 ) | ( 2 4 ) }
L:1/8
M:6/8
K:Eb
V:1 treble nm="Grand Piano"
V:3 treble 
V:2 treble 
V:4 treble 
V:1
 z3 z2[Q:1/4=100] G | B2 B BFG | E3- E2 B | c2 c cde | B3- B2 G | B2 B BFG | E3- E2 F | G2 B F2 B | %8
 E3- E2 F | z2 E BAF | E3- E2 B | z2 A edc | B3- B2 G | z2 D DGA |[M:7/8] B3 e3 E | %15
[M:3/4] G2 B F2 B |[M:5/8] z5 |[M:1/8] [B,GB] |[M:3/4] [EG]6 | [EG]6 | [EAc]2 [EAc][ce] [Bd][Ac] | %21
 [GB]2 [GB][GB] A[B,EG] | [DF]6 | [DF]6 | [Dc]2 [DB] c2 B | G6 | [DF]6 | E4- EG, | G,2 G G2 B | %29
 G4- GG, | G,2 G G2 B | G4- Ge | d2 c B2 A | G2 F E2 e | d2 c B2 A | G2 [DF] E2 B | c3 [Ad]3 | %37
 e4 c[CFA] | [B,EG]2 [EB] [DF]2 [DB] |[M:5/8] E-E- E3 |] %40
V:2
 z3 z2 E | GFE D2 B, | G,3- G,2 G | A2 A ABc | G3- G2 E | GFE D2 D | z3 z2 D | E2 G D2 D | z6 | %9
 z3 GFD | z6 | z3 cBA | G6 | z3 z EF |[M:7/8] G3 G3 z |[M:3/4] E2 G D3 |[M:5/8] E-E- E3 | %17
[M:1/8][K:bass] E, |[M:3/4] E,2 E, E,2 E, | E,2 E, E,2 E, | A,2 A, [A,E]2 [A,E] | %21
 [E,E]2 .[E,E]2 FE, | B,,2 B,, B,,2 E, | B,,2 B,, B,,2 B,, | [B,,A,]2 [B,,A,] [E,G,E]2 [E,G,E] | %25
 [E,B,]2 z2 z2 | B,,2 B,, B,,2 [B,,A,] | [E,G,]4- [E,G,]E, | z2 B, B,2 [EG] | [B,E]4- [B,E]E, | %30
 z2 B, B,2 [EG] | [B,E]4- [B,E][K:treble]E | D2 C B,2 A, | G,2 F, E,2[K:treble] [CE] | %34
 [B,DF]2 [A,DF][K:bass] [G,E]2 [F,CE] | [B,D]2 [B,,A,] [E,G,]2 [G,E] | [A,E]3 [F,B,]3 | z2 z .A,3 | %38
 B,,2 [B,,G,] [B,,A,]2 [B,,F,] |[M:5/8] [E,G,]-[E,G,]- [E,G,]3 |] %40
V:3
 x6 | x6 | x6 | x6 | x6 | x6 | x6 | x6 | x6 | G3 z3 | x6 | c3 z3 | x6 | .F6 |[M:7/8] x7 | %15
[M:3/4] x6 |[M:5/8] x5 |[M:1/8] x |[M:3/4] B,2 B, B,2 [EGB] | B,2 B, B,2 [EGB] | x6 | x6 | %22
 B,2 B, B,2 [B,EG] | B,2 B, B,2 [B,DB] | x6 | z2 B, B,2 [B,EB] | B,2 A, A,2 [DB] | x6 | x6 | x6 | %30
 x6 | x6 | x6 | x6 | x6 | x6 | x6 | G3 .A3 | x6 |[M:5/8] x5 |] %40
V:4
 x6 | x6 | x6 | x6 | x6 | x6 | x6 | x6 | x6 | x6 | x6 | x6 | x6 | x6 |[M:7/8] x7 |[M:3/4] x6 | %16
[M:5/8] x5 |[M:1/8][K:bass] x |[M:3/4] x6 | x6 | x6 | z2 z .[E,B,]3 | x6 | x6 | x6 | %25
 E2- [E,E-] [E,E]2 G,, | x6 | x6 | E,6- | E,6 | E,6- | E,6[K:treble] | x6 | x5[K:treble] x | %34
 x3[K:bass] x3 | x6 | x6 | [E,B,]3 C EA,, | x6 |[M:5/8] x5 |] %40

